public/shapes/characters/414.svg

<?xml version="1.0" encoding="UTF-8"?>
<svg width="114.15px" height="120.3px" version="1.1" xmlns="http://www.w3.org/2000/svg" xmlns:cc="http://creativecommons.org/ns#" xmlns:dc="http://purl.org/dc/elements/1.1/" xmlns:rdf="http://www.w3.org/1999/02/22-rdf-syntax-ns#">
 <metadata>
  <rdf:RDF>
   <cc:Work rdf:about="">
    <dc:format>image/svg+xml</dc:format>
    <dc:type rdf:resource="http://purl.org/dc/dcmitype/StillImage"/>
    <dc:title/>
   </cc:Work>
  </rdf:RDF>
 </metadata>
 <path d="m21.371 117.89 71.755 0.56612 19.673-69.774-7.501-20.805-22.928-6.7934-9.1994-17.125-27.881-0.42459-9.4825 8.9164-1.4153 8.3502-19.531 3.5382-13.728 19.39 8.2087 33.259z" fill="#fff"/>
 <g transform="translate(57.05 60.15)">
  <path d="m-32.05 55.65h3.45l-9.55-34.45-2.2 3.65 8.3 30.8m60.65 0h3.5l8.3-30.1-2.2-3.55-9.6 33.65m-21.6-35.9v-0.15q0-1.85-1.7-2.95-0.75 1-1.15 2.15l-0.05 0.35q0 0.5 0.6 1.25l1 0.65 0.8 0.05q0.5-0.25 0.5-1.35m-5.6-0.6q0-0.65 0.25-1.3l1.1-2.15-1-0.15-4.25-0.1q1.1 1.45 1.1 3.2l-0.05 0.8v-0.1l-0.05 0.3 0.05-0.2q-0.05 1.8-1.35 2.95-0.7 0.6-1.65 0.8 2.4 0.9 5.05 0.9l4.15-0.6q-1.1-0.4-1.9-1.2-1.45-1.45-1.45-3.15m6.4-4.05-0.15 0.05q2.05 1.8 2.05 4.45l-0.05 0.3-0.2 1.25q1.75-1.2 3.15-2.85-0.8-1.45-2.15-2.35-1.4-0.9-2.65-0.85m-19.35-0.65q2.2-1.6 5.55-0.9 3-1.3 8-0.65l2.75 0.6q1.35-0.95 2.85-1.05 1.85-0.1 3.65 0.9t3.1 2.75q3.25-4.85 4.15-10.8-5.05 3.75-11.1 3.75h-13.85q-6 0-10.9-3.6 1 6.05 4.25 10.75 0.55-1.05 1.55-1.75m2.2 5.9-0.35-1.8 0.05-0.7 0.6-1.7-0.9 0.45q-0.9 0.6-1.35 1.9l1.95 1.85m2.35-2.15v0.35q0 0.75 0.4 1.4 0.35 0.6 0.8 0.65l1.25-0.2 0.4-0.65 0.05-0.4v-0.25l0.05-0.55q0-1.55-1.65-2.15-1.15 0.75-1.3 1.8m27.6-27.6v-2.55h-40.2v2.55q0 5.45 3.85 9.3t9.3 3.85h13.85q5.45 0 9.3-3.85 3.9-3.85 3.9-9.3m0.7-22.15q0-1.6-1.05-3.55l-13.15 4.75q0.4 2.55 2.4 4.25t4.65 1.7q2.95 0 5.05-2.1t2.1-5.05m26.15 3.25q-5.7-7.2-17.5-8.55-1.4 12.45 0.15 25.25 2.6 22.4 13.6 34.7l7.9-26.6q0.8-3.5 0.8-8.1 0-10.35-4.95-16.7m-53.8-2.05-13.1-4.75q-1.05 1.8-1.05 3.55 0 2.95 2.1 5.05t5.05 2.1q2.6 0 4.6-1.7t2.4-4.25m7.7-24.55h-2.6v13.95h-6.4v-13.9q-5.05 0.5-8.5 4.25-3.45 3.8-3.45 8.9v2.5l18.45 7q0.7 0.25 0.95 0.9 0.3 0.65 0.05 1.3-0.25 0.7-0.9 0.95l-1.3 0.05-0.65-0.25q-0.8 3.6-3.65 5.95-2.95 2.4-6.7 2.4-3.4 0-6.25-2.05v7.2h40.2v-7.35q-2.95 2.2-6.45 2.2-3.8 0-6.7-2.4-2.9-2.35-3.7-6l-0.15 0.1-1.35-0.05q-0.65-0.3-0.9-0.95-0.2-0.65 0.05-1.3 0.3-0.65 0.95-0.9l18.25-6.9v-2.4q0-5.35-3.75-9.2t-9.1-3.95v13.9h-6.4v-13.95m-52.45 23.75q8.25-10.4 26.2-10.65 0.1-7.6 5.45-13 5.4-5.35 13-5.35h13.85q7.6 0 13 5.35 5.4 5.4 5.45 13 17.3 0.55 25.25 10.65 5.7 7.3 6 18.5 0.15 5.65-1 10.35l-18.5 62.45h-75.15l-18.55-62.55q-1.1-4.65-0.95-10.3 0.25-11.15 5.95-18.45m20.95-5.65q-11.7 1.45-17.25 8.5-5 6.35-5 16.7 0 4.6 0.8 8l7.85 26.5q10.9-12.3 13.5-34.55 1.45-12.8 0.1-25.15" fill-rule="evenodd"/>
 </g>
 <g>
  <ellipse cx="42.671" cy="31.066" rx="1.6276" ry="1.4861"/>
  <circle cx="72.18" cy="30.995" r="1.4153"/>
  <rect x="43.733" y="52.083" width="26.041" height="6.2273" ry="2.5882" stroke-width="1.5635"/>
 </g>
</svg>

<?xml version="1.0" encoding="UTF-8" standalone="no"?>
<svg xmlns:xlink="http://www.w3.org/1999/xlink" height="120.3px" width="114.15px" xmlns="http://www.w3.org/2000/svg">
  <g transform="matrix(1.0, 0.0, 0.0, 1.0, 57.05, 60.15)">
    <path d="M29.95 -36.85 Q41.75 -35.5 47.45 -28.3 52.4 -21.95 52.4 -11.6 52.4 -7.0 51.6 -3.5 L43.7 23.1 Q32.7 10.8 30.1 -11.6 28.55 -24.4 29.95 -36.85" fill="#ffffff" fill-rule="evenodd" stroke="none"/>
    <path d="M-47.4 -28.3 Q-41.85 -35.35 -30.15 -36.8 -28.8 -24.45 -30.25 -11.65 -32.85 10.6 -43.75 22.9 L-51.6 -3.6 Q-52.4 -7.0 -52.4 -11.6 -52.4 -21.95 -47.4 -28.3" fill="#ffffff" fill-rule="evenodd" stroke="none"/>
    <path d="M-7.0 18.55 L-7.0 18.2 Q-6.85 17.15 -5.7 16.4 -4.05 17.0 -4.05 18.55 L-4.1 19.1 -4.1 19.35 -4.15 19.75 -4.55 20.4 -5.8 20.6 Q-6.25 20.55 -6.6 19.95 -7.0 19.3 -7.0 18.55" fill="#ffffff" fill-rule="evenodd" stroke="none"/>
    <path d="M-9.05 16.15 L-9.65 17.85 -9.7 18.55 -9.35 20.35 -11.3 18.5 Q-10.85 17.2 -9.95 16.6 L-9.05 16.15" fill="#ffffff" fill-rule="evenodd" stroke="none"/>
    <path d="M7.8 15.1 Q9.05 15.05 10.45 15.95 11.8 16.85 12.6 18.3 11.2 19.95 9.45 21.15 L9.65 19.9 9.7 19.6 Q9.7 16.95 7.65 15.15 L7.8 15.1" fill="#ffffff" fill-rule="evenodd" stroke="none"/>
    <path d="M-17.35 5.45 Q-12.45 9.05 -6.45 9.05 L7.4 9.05 Q13.45 9.05 18.5 5.3 17.6 11.25 14.35 16.1 13.05 14.35 11.25 13.35 9.45 12.35 7.6 12.45 6.1 12.55 4.75 13.5 L2.0 12.9 Q-3.0 12.25 -6.0 13.55 -9.35 12.85 -11.55 14.45 -12.55 15.15 -13.1 16.2 -16.35 11.5 -17.35 5.45" fill="#ffffff" fill-rule="evenodd" stroke="none"/>
    <path d="M5.3 16.65 Q7.0 17.75 7.0 19.6 L7.0 19.75 Q7.0 20.85 6.5 21.1 L5.7 21.05 4.7 20.4 Q4.1 19.65 4.1 19.15 L4.15 18.8 Q4.55 17.65 5.3 16.65" fill="#ffffff" fill-rule="evenodd" stroke="none"/>
    <path d="M1.65 17.85 Q1.4 18.5 1.4 19.15 1.4 20.85 2.85 22.3 3.65 23.1 4.75 23.5 L0.6 24.1 Q-2.05 24.1 -4.45 23.2 -3.5 23.0 -2.8 22.4 -1.5 21.25 -1.45 19.45 L-1.4 18.65 Q-1.4 16.9 -2.5 15.45 L1.75 15.55 2.75 15.7 1.65 17.85" fill="#ffffff" fill-rule="evenodd" stroke="none"/>
    <path d="M-32.05 55.65 L-28.6 55.65 -38.15 21.2 -40.35 24.85 -32.05 55.65 M28.6 55.65 L32.1 55.65 40.4 25.55 38.2 22.0 28.6 55.65 M7.0 19.75 L7.0 19.6 Q7.0 17.75 5.3 16.65 4.55 17.65 4.15 18.8 L4.1 19.15 Q4.1 19.65 4.7 20.4 L5.7 21.05 6.5 21.1 Q7.0 20.85 7.0 19.75 M1.4 19.15 Q1.4 18.5 1.65 17.85 L2.75 15.7 1.75 15.55 -2.5 15.45 Q-1.4 16.9 -1.4 18.65 L-1.45 19.45 -1.45 19.35 -1.5 19.65 -1.45 19.45 Q-1.5 21.25 -2.8 22.4 -3.5 23.0 -4.45 23.2 -2.05 24.1 0.6 24.1 L4.75 23.5 Q3.65 23.1 2.85 22.3 1.4 20.85 1.4 19.15 M7.8 15.1 L7.65 15.15 Q9.7 16.95 9.7 19.6 L9.65 19.9 9.45 21.15 Q11.2 19.95 12.6 18.3 11.8 16.85 10.45 15.95 9.05 15.05 7.8 15.1 M-11.55 14.45 Q-9.35 12.85 -6.0 13.55 -3.0 12.25 2.0 12.9 L4.75 13.5 Q6.1 12.55 7.6 12.45 9.45 12.35 11.25 13.35 13.05 14.35 14.35 16.1 17.6 11.25 18.5 5.3 13.45 9.05 7.4 9.05 L-6.45 9.05 Q-12.45 9.05 -17.35 5.45 -16.35 11.5 -13.1 16.2 -12.55 15.15 -11.55 14.45 M-9.35 20.35 L-9.7 18.55 -9.65 17.85 -9.05 16.15 -9.95 16.6 Q-10.85 17.2 -11.3 18.5 L-9.35 20.35 M-7.0 18.2 L-7.0 18.55 Q-7.0 19.3 -6.6 19.95 -6.25 20.55 -5.8 20.6 L-4.55 20.4 -4.15 19.75 -4.1 19.35 -4.1 19.1 -4.05 18.55 Q-4.05 17.0 -5.7 16.4 -6.85 17.15 -7.0 18.2 M20.6 -9.4 L20.6 -11.95 -19.6 -11.95 -19.6 -9.4 Q-19.6 -3.95 -15.75 -0.1 -11.9 3.75 -6.45 3.75 L7.4 3.75 Q12.85 3.75 16.7 -0.1 20.6 -3.95 20.6 -9.4 M21.3 -31.55 Q21.3 -33.15 20.25 -35.1 L7.1 -30.35 Q7.5 -27.8 9.5 -26.1 11.5 -24.4 14.15 -24.4 17.1 -24.4 19.2 -26.5 21.3 -28.6 21.3 -31.55 M47.45 -28.3 Q41.75 -35.5 29.95 -36.85 28.55 -24.4 30.1 -11.6 32.7 10.8 43.7 23.1 L51.6 -3.5 Q52.4 -7.0 52.4 -11.6 52.4 -21.95 47.45 -28.3 M-6.35 -30.35 L-19.45 -35.1 Q-20.5 -33.3 -20.5 -31.55 -20.5 -28.6 -18.4 -26.5 -16.3 -24.4 -13.35 -24.4 -10.75 -24.4 -8.75 -26.1 -6.75 -27.8 -6.35 -30.35 M1.35 -54.9 L-1.25 -54.9 -1.25 -40.95 -7.65 -40.95 -7.65 -54.85 Q-12.7 -54.35 -16.15 -50.6 -19.6 -46.8 -19.6 -41.7 L-19.6 -39.2 -1.15 -32.2 Q-0.45 -31.95 -0.2 -31.3 0.1 -30.65 -0.15 -30.0 -0.4 -29.3 -1.05 -29.05 L-2.35 -29.0 -3.0 -29.25 Q-3.8 -25.65 -6.65 -23.3 -9.6 -20.9 -13.35 -20.9 -16.75 -20.9 -19.6 -22.95 L-19.6 -15.75 20.6 -15.75 20.6 -23.1 Q17.65 -20.9 14.15 -20.9 10.35 -20.9 7.45 -23.3 4.55 -25.65 3.75 -29.3 L3.6 -29.2 2.25 -29.25 Q1.6 -29.55 1.35 -30.2 1.15 -30.85 1.4 -31.5 1.7 -32.15 2.35 -32.4 L20.6 -39.3 20.6 -41.7 Q20.6 -47.05 16.85 -50.9 13.1 -54.75 7.75 -54.85 L7.75 -40.95 1.35 -40.95 1.35 -54.9 M-51.1 -31.15 Q-42.85 -41.55 -24.9 -41.8 -24.8 -49.4 -19.45 -54.8 -14.05 -60.15 -6.45 -60.15 L7.4 -60.15 Q15.0 -60.15 20.4 -54.8 25.8 -49.4 25.85 -41.8 43.15 -41.25 51.1 -31.15 56.8 -23.85 57.1 -12.65 57.25 -7.0 56.1 -2.3 L37.6 60.15 -37.55 60.15 -56.1 -2.4 Q-57.2 -7.05 -57.05 -12.7 -56.8 -23.85 -51.1 -31.15 M-30.15 -36.8 Q-41.85 -35.35 -47.4 -28.3 -52.4 -21.95 -52.4 -11.6 -52.4 -7.0 -51.6 -3.6 L-43.75 22.9 Q-32.85 10.6 -30.25 -11.65 -28.8 -24.45 -30.15 -36.8" fill="#000000" fill-rule="evenodd" stroke="none"/>
  </g>
</svg>
